src/next/cmd/32/doubleclicktextedit.svg

<svg height="32" width="32" xmlns="http://www.w3.org/2000/svg" xmlns:xlink="http://www.w3.org/1999/xlink"><filter id="a" color-interpolation-filters="sRGB" height="1.306617" width="1.43589" x="-.217945" y="-.153309"><feGaussianBlur stdDeviation="3.1542391"/></filter><linearGradient id="b" gradientUnits="userSpaceOnUse" x1="27.118645" x2="23.050846" y1="48" y2="22.779661"><stop offset="0" stop-color="#070707"/><stop offset="1" stop-color="#474747"/></linearGradient><filter id="c" color-interpolation-filters="sRGB" height="1.064552" width="1.1872" x="-.0936" y="-.032276"><feGaussianBlur stdDeviation="1.56"/></filter><g transform="scale(.25)"><path d="m32 6.1621094a5.8383476 5.8383476 0 0 0 -5.837891 5.8378906v4a5.8383476 5.8383476 0 0 0 5.837891 5.837891h2.162109v80.324219h-2.162109a5.8383476 5.8383476 0 0 0 -5.837891 5.83789v4a5.8383476 5.8383476 0 0 0 5.837891 5.83789h24a5.8383476 5.8383476 0 0 0 5.837891-5.83789v-4a5.8383476 5.8383476 0 0 0 -5.837891-5.83789h-2.162109v-80.324219h2.162109a5.8383476 5.8383476 0 0 0 5.837891-5.837891v-4a5.8383476 5.8383476 0 0 0 -5.837891-5.8378906z" fill="#626262" filter="url(#c)"/><path d="m32 8a4.0004 4.0004 0 0 0 -4 4v4a4.0004 4.0004 0 0 0 4 4h4v84h-4a4.0004 4.0004 0 0 0 -4 4v4a4.0004 4.0004 0 0 0 4 4h24a4.0004 4.0004 0 0 0 4-4v-4a4.0004 4.0004 0 0 0 -4-4h-4v-84h4a4.0004 4.0004 0 0 0 4-4v-4a4.0004 4.0004 0 0 0 -4-4z" fill="#fff"/><path d="m32 12v4h8v92h-8v4h24v-4h-8v-92h8v-4z"/><g transform="matrix(1.425 0 0 1.425 53.270118 40.423486)"><path d="m17.060547 12.158203a2.3165482 2.3165482 0 0 0 -2.292969 2.316406v43.931641a2.3165482 2.3165482 0 0 0 2.789063 2.267578l12.017578-2.501953 4.052734 2.925781a2.3165482 2.3165482 0 0 0 2.1875.285156s.994873-.375522 2.029297-.955078c.517212-.289778 1.056187-.616741 1.599609-1.136718.271711-.259989.557908-.570762.802735-1.060547.244826-.489785.429144-1.250221.238281-2.013672-.143844-.575376-.480314-2.249138-.744141-3.541016l8.742188-5.908203a2.3165482 2.3165482 0 0 0 .347656-3.550781l-30.101562-30.373047a2.3165482 2.3165482 0 0 0 -1.667969-.685547z" filter="url(#a)" opacity=".76"/><path d="m17.060547 10.158203a2.3165482 2.3165482 0 0 0 -2.292969 2.316406v43.931641a2.3165482 2.3165482 0 0 0 2.789063 2.267578l12.017578-2.501953 4.052734 2.925781a2.3165482 2.3165482 0 0 0 2.1875.285156s.994873-.375522 2.029297-.955078c.517212-.289778 1.056187-.616741 1.599609-1.136718.271711-.259989.557908-.570762.802735-1.060547.244826-.489785.429144-1.250221.238281-2.013672-.143844-.575376-.480314-2.249138-.744141-3.541016l8.742188-5.908203a2.3165482 2.3165482 0 0 0 .347656-3.550781l-30.101562-30.373047a2.3165482 2.3165482 0 0 0 -1.667969-.685547z" fill="#fff"/><path d="m18.757812 16.544922v37.800781l11.001954-2.291015c.783411-.07693 1.014571.122272 1.322265.283203l4.083985 2.951171c.205739-.08636.376081-.147386.726562-.34375.257288-.144149.430719-.278581.585938-.396484-.358612-1.585341-.966797-4.59375-.966797-4.59375-.244571-.620166.125465-1.178871.703126-1.716813l8.357422-5.646484z" fill="url(#b)"/></g></g></svg>

<?xml version="1.0" encoding="UTF-8" standalone="no"?>
<svg
   xmlns:dc="http://purl.org/dc/elements/1.1/"
   xmlns:cc="http://creativecommons.org/ns#"
   xmlns:rdf="http://www.w3.org/1999/02/22-rdf-syntax-ns#"
   xmlns:svg="http://www.w3.org/2000/svg"
   xmlns="http://www.w3.org/2000/svg"
   xmlns:sodipodi="http://sodipodi.sourceforge.net/DTD/sodipodi-0.dtd"
   xmlns:inkscape="http://www.inkscape.org/namespaces/inkscape"
   height="32"
   width="32"
   version="1.1"
   id="svg45"
   sodipodi:docname="doubleclicktextedit.svg"
   inkscape:export-filename="/home/rizmut/Dokumen/Rizmut/Github/libreoffice-style-karasa-jaga/build/next/cmd/32/doubleclicktextedit.png"
   inkscape:export-xdpi="96"
   inkscape:export-ydpi="96"
   inkscape:version="0.92.3 (2405546, 2018-03-11)">
  <metadata
     id="metadata51">
    <rdf:RDF>
      <cc:Work
         rdf:about="">
        <dc:format>image/svg+xml</dc:format>
        <dc:type
           rdf:resource="http://purl.org/dc/dcmitype/StillImage" />
        <dc:title></dc:title>
      </cc:Work>
    </rdf:RDF>
  </metadata>
  <defs
     id="defs49">
    <filter
       style="color-interpolation-filters:sRGB"
       id="d-3"
       height="1.306617"
       width="1.43589"
       x="-0.21794499"
       y="-0.153309">
      <feGaussianBlur
         stdDeviation="3.1542391"
         id="feGaussianBlur17" />
    </filter>
    <linearGradient
       id="e-6"
       gradientUnits="userSpaceOnUse"
       x1="27.118645"
       x2="23.050846"
       y1="48"
       y2="22.779661">
      <stop
         offset="0"
         stop-color="#070707"
         id="stop20" />
      <stop
         offset="1"
         stop-color="#474747"
         id="stop22" />
    </linearGradient>
  </defs>
  <sodipodi:namedview
     pagecolor="#ffffff"
     bordercolor="#666666"
     borderopacity="1"
     objecttolerance="10"
     gridtolerance="10"
     guidetolerance="10"
     inkscape:pageopacity="0"
     inkscape:pageshadow="2"
     inkscape:window-width="1366"
     inkscape:window-height="714"
     id="namedview47"
     showgrid="true"
     inkscape:zoom="10.429825"
     inkscape:cx="44.621303"
     inkscape:cy="17.152445"
     inkscape:window-x="0"
     inkscape:window-y="28"
     inkscape:window-maximized="1"
     inkscape:current-layer="g849">
    <inkscape:grid
       type="xygrid"
       id="grid858"
       spacingx="0.5"
       spacingy="0.5"
       empspacing="2" />
  </sodipodi:namedview>
  <linearGradient
     id="a"
     gradientUnits="userSpaceOnUse"
     x1="42"
     x2="72.138878"
     y1="118.03125"
     y2="5.5514269">
    <stop
       offset="0"
       stop-color="#084775"
       id="stop2" />
    <stop
       offset="1"
       stop-color="#084775"
       stop-opacity="0"
       id="stop4" />
  </linearGradient>
  <linearGradient
     gradientUnits="userSpaceOnUse"
     x1="52.126926"
     x2="52.126926"
     y1="-30.362009"
     y2="-142.43341"
     id="linearGradient11">
    <stop
       offset="0"
       stop-color="#403a3a"
       id="stop7" />
    <stop
       offset="1"
       stop-color="#6a5252"
       id="stop9" />
  </linearGradient>
  <filter
     id="b">
    <feGaussianBlur
       stdDeviation="1.2346784"
       id="feGaussianBlur13" />
  </filter>
  <clipPath
     id="c">
    <path
       d="m -23.029324,-146.61201 c -5.531616,-0.24083 -10.64527,3.53552 -12,8.96875 -2.1e-5,0.0104 -2.1e-5,0.0208 0,0.0312 l -2.8125,11.40625 h -6.03125 c -6.441349,0 -11.84375,5.4024 -11.84375,11.84375 v 8 c 0,5.84595 4.517586,10.626564 10.15625,11.5 l -4.125,16.65625 h -6.1875 c -6.441349,0 -11.84375,5.402402 -11.84375,11.84375 v 8 c 0,5.890458 4.58168,10.71459 10.28125,11.53125 l -0.84375,3.4375 c -1.553679,6.23113 2.382454,12.78725 8.625,14.34375 l 7.78125,1.9375 c 6.231123,1.55368 12.818494,-2.3825 14.375,-8.625 2.1e-5,-0.01042 2.1e-5,-0.02083 0,-0.03125 l 2.65625,-10.75 h 14.65625 l -0.78125,3.125 c -1.553681,6.23114 2.382455,12.78725 8.625,14.34375 l 7.78125,1.9375 c 6.213771,1.54936 12.804599,-2.45209 14.34375,-8.625 2.1e-5,-0.01042 2.1e-5,-0.02083 0,-0.03125 l 2.65625,-10.75 h 9.6875 c 6.44135,0 11.84375,-5.402396 11.84375,-11.84375 v -8 c 0,-6.441353 -5.4024,-11.84375 -11.84375,-11.84375 h -1.875 l 4.03125,-16.3125 h 9.84375 c 6.44135,0 11.84375,-5.402396 11.84375,-11.84375 v -8 c 0,-6.44135 -5.4024,-11.84375 -11.84375,-11.84375 h -2.03125 l 0.9375,-3.78125 c 1.55369,-6.23115 -2.3825,-12.78724 -8.625,-14.34375 l -7.78125,-1.9375 c -6.231121,-1.55367 -12.818487,2.38251 -14.375,8.625 -2.1e-5,0.0104 -2.1e-5,0.0208 0,0.0312 l -2.8125,11.40625 h -14.625 l 0.9375,-3.78125 c 1.571025,-6.30072 -2.431097,-12.79157 -8.65625,-14.34375 l -7.75,-1.9375 c -0.677154,-0.16884 -1.43324,-0.30275 -2.375,-0.34375 z m 10.03125,52.09375 h 14.625 l -4.03125,16.3125 h -14.625 z"
       id="path16"
       inkscape:connector-curvature="0" />
  </clipPath>
  <filter
     id="d"
     height="1.0645519"
     width="1.1872"
     x="-0.093599997"
     y="-0.032276001"
     style="color-interpolation-filters:sRGB">
    <feGaussianBlur
       stdDeviation="1.56"
       id="feGaussianBlur19" />
  </filter>
  <filter
     id="e"
     height="1.185769"
     width="1.257983"
     x="-0.12899099"
     y="-0.092885002"
     style="color-interpolation-filters:sRGB">
    <feGaussianBlur
       stdDeviation="2.6021677"
       id="feGaussianBlur22" />
  </filter>
  <g
     id="g849"
     transform="scale(0.25)">
    <path
       id="path25"
       d="M 32,6.1621094 A 5.8383476,5.8383476 0 0 0 26.162109,12 v 4 A 5.8383476,5.8383476 0 0 0 32,21.837891 h 2.162109 V 102.16211 H 32 A 5.8383476,5.8383476 0 0 0 26.162109,108 v 4 A 5.8383476,5.8383476 0 0 0 32,117.83789 H 56 A 5.8383476,5.8383476 0 0 0 61.837891,112 v -4 A 5.8383476,5.8383476 0 0 0 56,102.16211 H 53.837891 V 21.837891 H 56 A 5.8383476,5.8383476 0 0 0 61.837891,16 V 12 A 5.8383476,5.8383476 0 0 0 56,6.1621094 Z"
       inkscape:connector-curvature="0"
       style="fill:#626262;filter:url(#d)" />
    <path
       id="path27"
       d="m 32,8 a 4.0004,4.0004 0 0 0 -4,4 v 4 a 4.0004,4.0004 0 0 0 4,4 h 4 v 84 h -4 a 4.0004,4.0004 0 0 0 -4,4 v 4 a 4.0004,4.0004 0 0 0 4,4 h 24 a 4.0004,4.0004 0 0 0 4,-4 v -4 a 4.0004,4.0004 0 0 0 -4,-4 H 52 V 20 h 4 a 4.0004,4.0004 0 0 0 4,-4 V 12 A 4.0004,4.0004 0 0 0 56,8 Z"
       inkscape:connector-curvature="0"
       style="fill:#ffffff" />
    <path
       id="path43"
       d="m 32,12 v 4 h 8 v 92 h -8 v 4 h 24 v -4 H 48 V 16 h 8 v -4 z"
       inkscape:connector-curvature="0" />
    <g
       transform="matrix(1.425,0,0,1.425,53.270118,40.423486)"
       id="g44">
      <path
         d="m 17.060547,12.158203 a 2.3165482,2.3165482 0 0 0 -2.292969,2.316406 V 58.40625 a 2.3165482,2.3165482 0 0 0 2.789063,2.267578 l 12.017578,-2.501953 4.052734,2.925781 a 2.3165482,2.3165482 0 0 0 2.1875,0.285156 c 0,0 0.994873,-0.375522 2.029297,-0.955078 0.517212,-0.289778 1.056187,-0.616741 1.599609,-1.136718 0.271711,-0.259989 0.557908,-0.570762 0.802735,-1.060547 0.244826,-0.489785 0.429144,-1.250221 0.238281,-2.013672 -0.143844,-0.575376 -0.480314,-2.249138 -0.744141,-3.541016 l 8.742188,-5.908203 a 2.3165482,2.3165482 0 0 0 0.347656,-3.550781 L 18.728516,12.84375 a 2.3165482,2.3165482 0 0 0 -1.667969,-0.685547 z"
         id="path38"
         inkscape:connector-curvature="0"
         style="opacity:0.76000001;filter:url(#d-3)" />
      <path
         d="m 17.060547,10.158203 a 2.3165482,2.3165482 0 0 0 -2.292969,2.316406 V 56.40625 a 2.3165482,2.3165482 0 0 0 2.789063,2.267578 l 12.017578,-2.501953 4.052734,2.925781 a 2.3165482,2.3165482 0 0 0 2.1875,0.285156 c 0,0 0.994873,-0.375522 2.029297,-0.955078 0.517212,-0.289778 1.056187,-0.616741 1.599609,-1.136718 0.271711,-0.259989 0.557908,-0.570762 0.802735,-1.060547 0.244826,-0.489785 0.429144,-1.250221 0.238281,-2.013672 -0.143844,-0.575376 -0.480314,-2.249138 -0.744141,-3.541016 l 8.742188,-5.908203 a 2.3165482,2.3165482 0 0 0 0.347656,-3.550781 L 18.728516,10.84375 a 2.3165482,2.3165482 0 0 0 -1.667969,-0.685547 z"
         id="path40"
         inkscape:connector-curvature="0"
         style="fill:#ffffff" />
      <path
         d="m 18.757812,16.544922 v 37.800781 l 11.001954,-2.291015 c 0.783411,-0.07693 1.014571,0.122272 1.322265,0.283203 l 4.083985,2.951171 c 0.205739,-0.08636 0.376081,-0.147386 0.726562,-0.34375 0.257288,-0.144149 0.430719,-0.278581 0.585938,-0.396484 -0.358612,-1.585341 -0.966797,-4.59375 -0.966797,-4.59375 -0.244571,-0.620166 0.125465,-1.178871 0.703126,-1.716813 l 8.357422,-5.646484 z"
         id="path42"
         style="fill:url(#e-6)"
         inkscape:connector-curvature="0" />
    </g>
  </g>
</svg>
